16x16/apps/realvnc-vncviewer.svg

<svg height="16" width="16" xmlns="http://www.w3.org/2000/svg"><rect fill="#288cf4" height="16" rx=".8" width="16"/><path d="m2.7 4 2.531 8.395.008.011a.797.797 0 0 0 1.524.051l.01-.016 2.543-8.441h-.836l-2.47 8.203-2.474-8.203zm9.3 0a2 2 0 0 0 -2 2v2h.8v-2c0-.672.528-1.2 1.2-1.2s1.2.528 1.2 1.2v2h.8v-2a2 2 0 0 0 -2-2zm0 5a2 2 0 0 0 -2 2 2 2 0 0 0 2 2h2v-.8h-2c-.672 0-1.2-.528-1.2-1.2s.528-1.2 1.2-1.2h2v-.8z" fill="#f4f4f7"/></svg>

<svg xmlns="http://www.w3.org/2000/svg" width="16" height="16" version="1"><rect style="fill:#288cf4" width="16" height="16" rx=".8" ry=".8"/><path style="fill:#f4f4f7" d="m2.7 4 2.531 8.395.008.011a.797.797 0 0 0 1.524.051l.01-.016L9.316 4h-.836L6.01 12.203 3.536 4zM12 4a2 2 0 0 0-2 2v2h.8V6c0-.672.528-1.2 1.2-1.2.672 0 1.2.528 1.2 1.2v2h.8V6a2 2 0 0 0-2-2zM12 9a2 2 0 0 0-2 2 2 2 0 0 0 2 2h2v-.8h-2c-.672 0-1.2-.528-1.2-1.2 0-.672.528-1.2 1.2-1.2h2V9z"/></svg>
